ix/filter-edit_twotone.svg

<svg viewBox="0 0 24 24" fill="none" xmlns="http://www.w3.org/2000/svg" height="1em" width="1em">
  <path opacity="0.4" d="M13.4105 20.7898L12.0005 21.6998C10.6905 22.5098 8.87054 21.5998 8.87054 19.9798V14.6298C8.87054 13.9198 8.47055 13.0098 8.06055 12.5098L4.22052 8.46976C3.71052 7.95976 3.31055 7.05977 3.31055 6.44977V4.12976C3.31055 2.91976 4.22057 2.00977 5.33057 2.00977H18.6705C19.7805 2.00977 20.6906 2.91975 20.6906 4.02975V6.24976C20.6906 7.05976 20.1805 8.06976 19.6805 8.56976" stroke="#292D32" stroke-width="1.5" stroke-miterlimit="10" stroke-linecap="round" stroke-linejoin="round"/>
  <path d="M17.0802 11.8899L13.5401 15.4299C13.4001 15.5699 13.2701 15.8299 13.2401 16.0199L13.0501 17.3699C12.9801 17.8599 13.3202 18.1999 13.8102 18.1299L15.1601 17.9399C15.3501 17.9099 15.6202 17.7799 15.7502 17.6399L19.2901 14.0999C19.9001 13.4899 20.1901 12.7799 19.2901 11.8799C18.4001 10.9899 17.6902 11.2799 17.0802 11.8899Z" stroke="#292D32" stroke-width="1.5" stroke-miterlimit="10" stroke-linecap="round" stroke-linejoin="round"/>
  <path d="M16.5801 12.3901C16.8801 13.4701 17.72 14.3101 18.8 14.6101" stroke="#292D32" stroke-width="1.5" stroke-miterlimit="10" stroke-linecap="round" stroke-linejoin="round"/>
</svg>

<svg viewBox="0 0 24 24" fill="none" xmlns="http://www.w3.org/2000/svg" height="1em" width="1em">
  <path opacity=".4" d="M13.41 20.79 12 21.7c-1.31.81-3.13-.1-3.13-1.72v-5.35c0-.71-.4-1.62-.81-2.12L4.22 8.47c-.51-.51-.91-1.41-.91-2.02V4.13c0-1.21.91-2.12 2.02-2.12h13.34c1.11 0 2.02.91 2.02 2.02v2.22c0 .81-.51 1.82-1.01 2.32" stroke="#292D32" stroke-width="1.5" stroke-miterlimit="10" stroke-linecap="round" stroke-linejoin="round"/>
  <path d="m17.08 11.89-3.54 3.54c-.14.14-.27.4-.3.59l-.19 1.35c-.07.49.27.83.76.76l1.35-.19c.19-.03.46-.16.59-.3l3.54-3.54c.61-.61.9-1.32 0-2.22-.89-.89-1.6-.6-2.21.01Z" stroke="#292D32" stroke-width="1.5" stroke-miterlimit="10" stroke-linecap="round" stroke-linejoin="round"/>
  <path d="M16.58 12.39c.3 1.08 1.14 1.92 2.22 2.22" stroke="#292D32" stroke-width="1.5" stroke-miterlimit="10" stroke-linecap="round" stroke-linejoin="round"/>
</svg>
